;FLAVOR:Marlin
M117 Time Left 0h04m50s
;TIME:290
;Filament used: 0.391975m
;Layer height: 0.28
;MINX:77.975
;MINY:90.476
;MINZ:0.28
;MAXX:157.025
;MAXY:144.525
;MAXZ:3.08
;POSTPROCESSED
;Generated with Cura_SteamEngine 5.2.1
M140 S60
M105
M190 S60
M104 S205
M105
M109 S205
M82 ;absolute extrusion mode
; Ender 3 Custom Start G-code
G92 E0 ; Reset Extruder
G28 ; Home all axes
G1 Z2.0 F3000 ; Move Z Axis up little to prevent scratching of Heat Bed
G1 X0.1 Y20 Z0.3 F5000.0 ; Move to start position
G1 X0.1 Y200.0 Z0.3 F1500.0 E15 ; Draw the first line
G1 X0.4 Y200.0 Z0.3 F5000.0 ; Move to side a little
G1 X0.4 Y20 Z0.3 F1500.0 E30 ; Draw the second line
G92 E0 ; Reset Extruder
G1 Z2.0 F3000 ; Move Z Axis up little to prevent scratching of Heat Bed
G1 X5 Y20 Z0.3 F5000.0 ; Move over to prevent blob squish
G92 E0
G92 E0
G1 F2700 E-6
;LAYER_COUNT:11
;LAYER:0
M107
M204 S500
M205 X5 Y5
G0 F7500 X83.04 Y94.548 Z0.28
M205 X8 Y8
;TYPE:SKIRT
G1 F2700 E0
G1 F1500 X83.843 Y93.861 E0.04996
G1 X84.147 Y93.626 E0.06813
G1 X84.768 Y93.181 E0.10425
G1 X85.084 Y92.971 E0.12218
G1 X85.739 Y92.569 E0.15852
G1 X86.015 Y92.413 E0.17351
G1 X86.962 Y91.938 E0.22359
G1 X87.52 Y91.692 E0.25242
G1 X88.517 Y91.311 E0.30288
G1 X88.839 Y91.206 E0.3189
G1 X89.658 Y90.974 E0.35914
G1 X90.15 Y90.856 E0.38306
G1 X91.239 Y90.654 E0.43542
G1 X91.662 Y90.598 E0.4556
G1 X92.629 Y90.515 E0.50148
G1 X93.367 Y90.485 E0.5364
G1 X93.801 Y90.476 E0.55692
G1 X140.686 Y90.477 E2.77351
G1 X142.133 Y90.507 E2.84194
G1 X143.233 Y90.587 E2.89408
G1 X143.634 Y90.637 E2.91319
G1 X144.473 Y90.776 E2.95339
G1 X144.807 Y90.845 E2.96952
G1 X145.795 Y91.099 E3.01775
G1 X146.362 Y91.274 E3.0458
G1 X147.331 Y91.625 E3.09452
G1 X147.587 Y91.732 E3.10764
G1 X148.27 Y92.046 E3.14318
G1 X148.713 Y92.269 E3.16663
G1 X149.628 Y92.788 E3.21636
G1 X149.953 Y92.994 E3.23455
G1 X150.696 Y93.51 E3.27732
G1 X151.083 Y93.804 E3.3003
G1 X151.813 Y94.412 E3.34521
G1 X152.037 Y94.616 E3.35954
G1 X152.659 Y95.231 E3.40089
G1 X153.055 Y95.656 E3.42835
G1 X153.747 Y96.478 E3.47915
G1 X153.933 Y96.723 E3.4937
G1 X154.399 Y97.388 E3.53209
G1 X154.654 Y97.783 E3.55431
G1 X155.105 Y98.549 E3.59634
G1 X155.273 Y98.864 E3.61322
G1 X155.701 Y99.766 E3.66042
G1 X155.912 Y100.27 E3.68625
G1 X156.26 Y101.226 E3.73435
G1 X156.351 Y101.519 E3.74885
G1 X156.549 Y102.246 E3.78447
G1 X156.656 Y102.702 E3.80662
G1 X156.843 Y103.718 E3.85546
G1 X156.898 Y104.127 E3.87497
G1 X156.974 Y104.921 E3.91268
G1 X157.006 Y105.542 E3.94208
G1 X157.025 Y106.333 E3.97948
G1 X157.024 Y133.261 E5.25256
G1 X157.014 Y133.988 E5.28694
G1 X156.961 Y134.91 E5.3306
G1 X156.829 Y135.825 E5.37431
G1 X156.618 Y136.724 E5.41796
G1 X156.33 Y137.602 E5.46165
G1 X155.968 Y138.452 E5.50533
G1 X155.533 Y139.267 E5.549
G1 X155.029 Y140.042 E5.59271
G1 X154.461 Y140.77 E5.63636
G1 X153.831 Y141.446 E5.68005
G1 X153.146 Y142.065 E5.7237
G1 X152.409 Y142.623 E5.7674
G1 X151.627 Y143.115 E5.81108
G1 X150.805 Y143.537 E5.85477
G1 X149.95 Y143.887 E5.89844
G1 X149.068 Y144.162 E5.94212
G1 X148.165 Y144.359 E5.98582
G1 X147.249 Y144.477 E6.02948
G1 X146.64 Y144.512 E6.05832
G1 X146.02 Y144.525 E6.08764
G1 X144.204 Y144.524 E6.17349
G1 X143.505 Y144.514 E6.20654
G1 X142.583 Y144.461 E6.25021
G1 X141.669 Y144.328 E6.29387
G1 X141.161 Y144.219 E6.31844
G1 X140.791 Y144.13 E6.33643
G1 X138.736 Y143.599 E6.43677
G1 X136.262 Y143.03 E6.55679
G1 X133.767 Y142.532 E6.67707
G1 X131.279 Y142.107 E6.7964
G1 X128.808 Y141.757 E6.91439
G1 X126.269 Y141.47 E7.03519
G1 X123.764 Y141.259 E7.15404
G1 X121.247 Y141.117 E7.27323
G1 X118.716 Y141.047 E7.39293
G1 X116.208 Y141.049 E7.5115
G1 X113.659 Y141.123 E7.63206
G1 X111.135 Y141.267 E7.75158
G1 X108.624 Y141.482 E7.87073
G1 X106.126 Y141.768 E7.9896
G1 X103.609 Y142.127 E8.1098
G1 X101.106 Y142.557 E8.22987
G1 X98.674 Y143.045 E8.34714
G1 X96.158 Y143.628 E8.46924
G1 X94.009 Y144.179 E8.57413
G1 X93.105 Y144.37 E8.61781
G1 X92.188 Y144.482 E8.66149
G1 X91.705 Y144.508 E8.68435
G1 X91.02 Y144.525 E8.71675
G1 X89.219 Y144.524 E8.80189
G1 X88.521 Y144.515 E8.8349
G1 X87.599 Y144.463 E8.87856
G1 X86.684 Y144.332 E8.92226
G1 X85.785 Y144.122 E8.9659
G1 X84.907 Y143.835 E9.00957
G1 X84.056 Y143.473 E9.05329
G1 X83.241 Y143.039 E9.09695
G1 X82.466 Y142.536 E9.14063
G1 X81.737 Y141.968 E9.18432
G1 X81.06 Y141.339 E9.22801
G1 X80.441 Y140.654 E9.27166
G1 X79.882 Y139.918 E9.31535
G1 X79.39 Y139.136 E9.35903
G1 X78.967 Y138.315 E9.40269
G1 X78.616 Y137.46 E9.44639
G1 X78.341 Y136.578 E9.49007
G1 X78.143 Y135.675 E9.53377
G1 X78.024 Y134.759 E9.57744
G1 X77.988 Y134.129 E9.60728
G1 X77.975 Y133.508 E9.63664
G1 X77.977 Y106.766 E10.90093
G1 X78.004 Y105.419 E10.96462
G1 X78.076 Y104.382 E11.01377
G1 X78.129 Y103.933 E11.03514
G1 X78.287 Y102.969 E11.08133
G1 X78.364 Y102.606 E11.09887
G1 X78.601 Y101.692 E11.14351
G1 X78.75 Y101.206 E11.16754
G1 X79.091 Y100.257 E11.21522
G1 X79.227 Y99.928 E11.23205
G1 X79.558 Y99.204 E11.26969
G1 X79.761 Y98.801 E11.29102
G1 X80.265 Y97.91 E11.33941
G1 X80.48 Y97.569 E11.35847
G1 X81.02 Y96.791 E11.40325
G1 X81.318 Y96.4 E11.42649
G1 X81.909 Y95.69 E11.47016
G1 X82.109 Y95.47 E11.48422
G1 X82.676 Y94.892 E11.5225
G1 X83.04 Y94.548 E11.54618
M205 X5 Y5
G0 F7500 X83.349 Y94.876
M205 X8 Y8
G1 F1500 X84.118 Y94.217 E11.59406
G1 X84.422 Y93.982 E11.61222
G1 X85.017 Y93.556 E11.64682
G1 X85.333 Y93.346 E11.66476
G1 X85.961 Y92.96 E11.69961
G1 X86.237 Y92.804 E11.71459
G1 X87.143 Y92.35 E11.7625
G1 X87.701 Y92.104 E11.79134
G1 X88.656 Y91.739 E11.83967
G1 X88.978 Y91.634 E11.85568
G1 X89.763 Y91.412 E11.89425
G1 X90.255 Y91.294 E11.91817
G1 X91.298 Y91.1 E11.96833
G1 X91.721 Y91.044 E11.9885
G1 X92.648 Y90.964 E12.03249
G1 X93.386 Y90.934 E12.06741
G1 X93.801 Y90.926 E12.08703
G1 X140.677 Y90.927 E14.3032
G1 X142.124 Y90.957 E14.37162
G1 X143.177 Y91.034 E14.42154
G1 X143.578 Y91.084 E14.44064
G1 X144.382 Y91.216 E14.47916
G1 X144.716 Y91.285 E14.49529
G1 X145.663 Y91.529 E14.54152
G1 X146.23 Y91.704 E14.56957
G1 X147.157 Y92.04 E14.61619
G1 X147.413 Y92.147 E14.62931
G1 X148.067 Y92.448 E14.66334
G1 X148.51 Y92.671 E14.68679
G1 X149.387 Y93.168 E14.73445
G1 X149.712 Y93.374 E14.75264
G1 X150.423 Y93.868 E14.79357
G1 X150.81 Y94.162 E14.81655
G1 X151.51 Y94.744 E14.85959
G1 X151.734 Y94.948 E14.87391
G1 X152.33 Y95.538 E14.91356
G1 X152.726 Y95.963 E14.94102
G1 X153.389 Y96.75 E14.98967
G1 X153.575 Y96.995 E15.00422
G1 X154.021 Y97.632 E15.04098
G1 X154.276 Y98.027 E15.06321
G1 X154.708 Y98.761 E15.10347
G1 X154.876 Y99.076 E15.12035
G1 X155.286 Y99.939 E15.16552
G1 X155.497 Y100.443 E15.19135
G1 X155.83 Y101.359 E15.23743
G1 X155.921 Y101.652 E15.25194
G1 X156.111 Y102.349 E15.28609
G1 X156.218 Y102.805 E15.30824
G1 X156.397 Y103.778 E15.35501
G1 X156.452 Y104.187 E15.37452
G1 X156.525 Y104.948 E15.41066
G1 X156.557 Y105.556 E15.43945
G1 X156.575 Y106.333 E15.47619
G1 X156.574 Y133.255 E16.74899
G1 X156.564 Y133.982 E16.78336
G1 X156.512 Y134.884 E16.82608
G1 X156.38 Y135.779 E16.86885
G1 X156.169 Y136.658 E16.91158
G1 X155.882 Y137.516 E16.95436
G1 X155.52 Y138.344 E16.99708
G1 X155.086 Y139.138 E17.03986
G1 X154.584 Y139.89 E17.08261
G1 X154.018 Y140.594 E17.12531
G1 X153.391 Y141.246 E17.16808
G1 X152.709 Y141.84 E17.21084
G1 X151.978 Y142.371 E17.25355
G1 X151.202 Y142.836 E17.29632
G1 X150.388 Y143.231 E17.3391
G1 X149.543 Y143.551 E17.38181
G1 X148.672 Y143.796 E17.42459
G1 X147.784 Y143.964 E17.46732
G1 X146.627 Y144.062 E17.52221
G1 X146.02 Y144.075 E17.55092
G1 X144.211 Y144.074 E17.63644
G1 X143.512 Y144.064 E17.66949
G1 X142.609 Y144.011 E17.71226
G1 X141.715 Y143.879 E17.75498
G1 X141.267 Y143.781 E17.77666
G1 X140.722 Y143.649 E17.80317
G1 X138.841 Y143.161 E17.89504
G1 X136.349 Y142.589 E18.01592
G1 X133.829 Y142.085 E18.13742
G1 X131.374 Y141.666 E18.25516
G1 X128.858 Y141.31 E18.3753
G1 X126.323 Y141.024 E18.49591
G1 X123.789 Y140.81 E18.61613
G1 X121.249 Y140.667 E18.73641
G1 X118.728 Y140.597 E18.85564
G1 X116.195 Y140.599 E18.97539
G1 X113.619 Y140.674 E19.09723
G1 X111.143 Y140.815 E19.21448
G1 X108.568 Y141.036 E19.33667
G1 X106.045 Y141.324 E19.45672
G1 X103.537 Y141.682 E19.57649
G1 X101.049 Y142.11 E19.69585
G1 X98.592 Y142.603 E19.81432
G1 X96.025 Y143.197 E19.93889
G1 X93.897 Y143.743 E20.04275
G1 X93.012 Y143.929 E20.08551
G1 X91.691 Y144.059 E20.14826
G1 X91.02 Y144.075 E20.18
G1 X89.225 Y144.074 E20.26486
G1 X88.527 Y144.065 E20.29786
G1 X87.624 Y144.014 E20.34062
G1 X86.73 Y143.882 E20.38334
G1 X85.85 Y143.673 E20.4261
G1 X84.993 Y143.386 E20.46883
G1 X84.164 Y143.025 E20.51158
G1 X83.37 Y142.592 E20.55434
G1 X82.618 Y142.09 E20.59708
G1 X81.912 Y141.524 E20.63986
G1 X81.26 Y140.898 E20.6826
G1 X80.665 Y140.217 E20.72535
G1 X80.133 Y139.486 E20.76809
G1 X79.668 Y138.711 E20.81082
G1 X79.273 Y137.897 E20.8536
G1 X78.951 Y137.052 E20.89635
G1 X78.706 Y136.182 E20.93908
G1 X78.538 Y135.294 E20.98181
G1 X78.438 Y134.117 E21.03765
G1 X78.425 Y133.508 E21.06645
G1 X78.427 Y106.775 E22.33031
G1 X78.454 Y105.428 E22.39401
G1 X78.522 Y104.434 E22.44111
G1 X78.575 Y103.985 E22.46249
G1 X78.728 Y103.062 E22.50672
G1 X78.805 Y102.699 E22.52426
G1 X79.031 Y101.824 E22.56699
G1 X79.18 Y101.338 E22.59102
G1 X79.507 Y100.429 E22.63669
G1 X79.643 Y100.1 E22.65352
G1 X79.96 Y99.406 E22.68959
G1 X80.163 Y99.003 E22.71093
G1 X80.646 Y98.15 E22.75727
G1 X80.861 Y97.809 E22.77633
G1 X81.378 Y97.064 E22.8192
G1 X81.676 Y96.673 E22.84244
G1 X82.242 Y95.993 E22.88427
G1 X82.442 Y95.773 E22.89833
G1 X82.985 Y95.22 E22.93497
G1 X83.349 Y94.876 E22.95864
M205 X5 Y5
G1 F2700 E16.95864
;MESH:test1 (Meshed).stl
G0 F7500 X88.004 Y105.548
G0 X89.094 Y106.023
G0 X89.53 Y132.97
G1 F2700 E22.95864
G0 F7500 X89.35 Y133.15
M205 X8 Y8
;TYPE:WALL-INNER
G1 F1500 X90.65 Y133.15 E23.02693
G1 X90.65 Y105.971 E24.45465
G1 X90.704 Y105.726 E24.46783
G1 X90.826 Y105.472 E24.48263
G1 X92.978 Y103.321 E24.64247
G1 X93.382 Y103.15 E24.66551
G1 X141.531 Y103.15 E27.19479
G1 X141.71 Y103.179 E27.20431
G1 X142.023 Y103.321 E27.22237
G1 X144.175 Y105.474 E27.38228
G1 X144.296 Y105.726 E27.39696
G1 X144.35 Y105.968 E27.40999
G1 X144.35 Y133.15 E28.83786
G1 X145.651 Y133.15 E28.9062
G1 X145.651 Y106.028 E30.33093
G1 X145.634 Y105.644 E30.35112
G1 X145.585 Y105.274 E30.37073
G1 X145.508 Y104.93 E30.38924
G1 X145.401 Y104.587 E30.40812
G1 X145.258 Y104.24 E30.42783
G1 X145.097 Y103.932 E30.44609
G1 X144.894 Y103.613 E30.46595
G1 X144.683 Y103.338 E30.48416
G1 X144.437 Y103.069 E30.50331
G1 X144.163 Y102.82 E30.52276
G1 X143.881 Y102.603 E30.54145
G1 X143.57 Y102.405 E30.56082
G1 X143.262 Y102.244 E30.57907
G1 X142.92 Y102.101 E30.59854
G1 X142.557 Y101.989 E30.6185
G1 X142.227 Y101.916 E30.63625
G1 X141.843 Y101.866 E30.6566
G1 X141.584 Y101.853 E30.67022
G1 X93.471 Y101.852 E33.19761
G1 X93.143 Y101.867 E33.21485
G1 X92.773 Y101.915 E33.23445
G1 X92.429 Y101.992 E33.25297
G1 X92.085 Y102.1 E33.27191
G1 X91.742 Y102.242 E33.29141
G1 X91.432 Y102.403 E33.30976
G1 X91.116 Y102.604 E33.32943
G1 X90.838 Y102.818 E33.34786
G1 X90.569 Y103.063 E33.36698
G1 X90.32 Y103.337 E33.38642
G1 X90.106 Y103.616 E33.40489
G1 X89.905 Y103.93 E33.42448
G1 X89.745 Y104.236 E33.44262
G1 X89.599 Y104.586 E33.46254
G1 X89.491 Y104.928 E33.48138
G1 X89.416 Y105.27 E33.49977
G1 X89.365 Y105.664 E33.52064
G1 X89.35 Y106.02 E33.53936
G1 X89.35 Y133.15 E34.9645
M205 X5 Y5
G0 F7500 X89.075 Y133.425
M205 X8 Y8
;TYPE:WALL-OUTER
G1 F1500 X90.925 Y133.425 E35.05197
G1 X90.925 Y105.982 E36.34939
G1 X91.046 Y105.642 E36.36646
G1 X93.14 Y103.547 E36.50649
G1 X93.412 Y103.425 E36.52059
G1 X141.587 Y103.425 E38.79817
G1 X141.856 Y103.544 E38.81207
G1 X143.953 Y105.641 E38.95228
G1 X144.075 Y105.98 E38.96931
G1 X144.075 Y133.425 E40.26684
G1 X145.926 Y133.425 E40.35435
G1 X145.926 Y106.028 E41.6496
G1 X145.908 Y105.62 E41.66891
G1 X145.856 Y105.226 E41.6877
G1 X145.774 Y104.859 E41.70547
G1 X145.659 Y104.493 E41.72361
G1 X145.507 Y104.123 E41.74252
G1 X145.335 Y103.794 E41.76007
G1 X145.12 Y103.455 E41.77905
G1 X144.893 Y103.161 E41.79661
G1 X144.631 Y102.874 E41.81499
G1 X144.339 Y102.609 E41.83363
G1 X144.039 Y102.378 E41.85153
G1 X143.707 Y102.167 E41.87013
G1 X143.379 Y101.995 E41.88764
G1 X143.013 Y101.842 E41.90639
G1 X142.627 Y101.723 E41.92549
G1 X142.275 Y101.645 E41.94253
G1 X141.866 Y101.592 E41.96203
G1 X141.466 Y101.576 E41.98096
G1 X93.458 Y101.577 E44.25064
G1 X93.119 Y101.593 E44.26669
G1 X92.726 Y101.644 E44.28542
G1 X92.358 Y101.726 E44.30325
G1 X91.991 Y101.842 E44.32144
G1 X91.625 Y101.992 E44.34014
G1 X91.294 Y102.165 E44.3578
G1 X90.958 Y102.378 E44.37661
G1 X90.661 Y102.607 E44.39434
G1 X90.374 Y102.869 E44.41271
G1 X90.109 Y103.161 E44.43135
G1 X89.88 Y103.458 E44.44908
G1 X89.667 Y103.793 E44.46785
G1 X89.496 Y104.119 E44.48526
G1 X89.34 Y104.491 E44.50433
G1 X89.226 Y104.857 E44.52245
G1 X89.145 Y105.223 E44.54017
G1 X89.091 Y105.641 E44.5601
G1 X89.075 Y106.015 E44.5778
G1 X89.075 Y133.425 E45.87366
M205 X5 Y5
G0 F7500 X89.275 Y133.425
G0 X89.728 Y132.772
M205 X8 Y8
;TYPE:SKIN
G1 F1243.1 X90.272 Y132.772 E45.9047
G1 F1245.4 X90.272 Y105.954 E47.43179
G1 F1220.6 X90.333 Y105.616 E47.45174
G1 F1331.4 X90.578 Y105.251 E47.47516
G1 F1500 X92.753 Y103.076 E47.62058
G1 F1339.3 X93.17 Y102.811 E47.64674
G1 F1227.3 X93.423 Y102.775 E47.66151
G1 F1243.1 X141.573 Y102.774 E50.40836
G1 F1231.8 X141.829 Y102.809 E50.42324
G1 F1155.8 X142.219 Y102.958 E50.44885
G1 F1268.8 X142.192 Y103.021 E50.45268
G1 F1500 X144.422 Y105.254 E50.60188
G1 F1328.7 X144.667 Y105.613 E50.62508
G1 F1216.2 X144.724 Y105.908 E50.6426
G1 F1240.8 X144.729 Y132.771 E52.1779
G1 X145.272 Y132.771 E52.20893
G1 F1243.1 X145.273 Y106.031 E53.73439
G1 F1225 X145.25 Y105.69 E53.75417
G1 F1240.8 X145.224 Y105.374 E53.77229
G1 F1377.6 X145.192 Y105.044 E53.78936
G1 F1496.7 X145.089 Y104.704 E53.8062
G1 F1500 X144.956 Y104.38 E53.82275
G1 X144.809 Y104.098 E53.83779
G1 X144.622 Y103.805 E53.85422
G1 X144.43 Y103.556 E53.86909
G1 X144.203 Y103.306 E53.88505
G1 X143.945 Y103.071 E53.90155
G1 X143.662 Y102.856 E53.91835
G1 X143.376 Y102.678 E53.93428
G1 X143.122 Y102.546 E53.94781
G1 X142.794 Y102.408 E53.96464
G1 X142.469 Y102.313 E53.98064
G1 F1268.8 X142.438 Y102.388 E53.98518
G1 F1126.9 X142.145 Y102.309 E54.00428
G1 F1178 X141.719 Y102.231 E54.03035
G1 F1205.4 X133.671 Y102.231 E54.50384
G1 F1214 X125.623 Y102.231 E54.97396
G1 F1220.6 X117.575 Y102.231 E55.44153
G1 F1229.5 X109.527 Y102.231 E55.90573
G1 F1236.3 X101.479 Y102.231 E56.36738
G1 F1245.4 X93.431 Y102.231 E56.82566
G1 F1234 X93.166 Y102.251 E56.84093
G1 F1268.8 X92.856 Y102.27 E56.85829
G1 F1406.2 X92.569 Y102.302 E56.87285
G1 F1500 X92.201 Y102.413 E56.89103
G1 X91.881 Y102.544 E56.90737
G1 X91.598 Y102.692 E56.92247
G1 X91.307 Y102.876 E56.93875
G1 X91.05 Y103.074 E56.95409
G1 X90.806 Y103.297 E56.96971
G1 X90.577 Y103.551 E56.98588
G1 X90.361 Y103.834 E57.00271
G1 X90.179 Y104.124 E57.0189
G1 X90.044 Y104.378 E57.0325
G1 X89.912 Y104.697 E57.04882
G1 X89.813 Y105.012 E57.06443
G1 F1391.8 X89.779 Y105.333 E57.08088
G1 F1243.1 X89.777 Y105.517 E57.09138
G1 F1220.6 X89.731 Y105.931 E57.11558
G1 F1245.4 X89.728 Y132.772 E58.64398
M205 X5 Y5
G0 F7500 X89.5 Y132.772
G0 X90.428 Y132.928
G0 X90.486 Y105.829
G0 X90.149 Y105.423
M205 X8 Y8
G1 F1500 X90.035 Y105.309 E58.6516
M205 X5 Y5
G0 F7500 X90.436 Y105.073
M205 X8 Y8
G1 F1500 X90.127 Y104.764 E58.67226
M205 X5 Y5
G0 F7500 X90.325 Y104.326
M205 X8 Y8
G1 F1500 X90.755 Y104.755 E58.70098
M205 X5 Y5
G0 F7500 X91.073 Y104.437
M205 X8 Y8
G1 F1500 X90.567 Y103.931 E58.73481
M205 X5 Y5
G0 F7500 X90.852 Y103.58
M205 X8 Y8
G1 F1500 X91.391 Y104.119 E58.77085
M205 X5 Y5
G0 F7500 X91.709 Y103.801
M205 X8 Y8
G1 F1500 X91.174 Y103.265 E58.80665
M205 X5 Y5
G0 F7500 X91.539 Y102.995
M205 X8 Y8
G1 F1500 X92.027 Y103.482 E58.83924
M205 X5 Y5
G0 F7500 X92.346 Y103.164
M205 X8 Y8
G1 F1500 X91.945 Y102.763 E58.86605
M205 X5 Y5
G0 F7500 X92.403 Y102.585
M205 X8 Y8
G1 F1500 X92.676 Y102.858 E58.88431
M205 X5 Y5
G1 F2700 E52.88431
G0 F7500 X92.934 Y103.179
G0 X93.329 Y102.986
G0 X141.857 Y103.01
G0 X142.648 Y103.649
G0 X144.462 Y105.58
G0 X144.561 Y105.959
