;FLAVOR:Marlin
M117 Time Left 0h39m35s
;TIME:2375
;Filament used: 1.38964m
;Layer height: 0.2
;MINX:81.417
;MINY:99.075
;MINZ:0.28
;MAXX:153.583
;MAXY:135.925
;MAXZ:31.28
;POSTPROCESSED
;Generated with Cura_SteamEngine 5.2.1
M140 S60
M105
M190 S60
M104 S205
M105
M109 S205
M82 ;absolute extrusion mode
; Ender 3 Custom Start G-code
G92 E0 ; Reset Extruder
G28 ; Home all axes
G1 Z2.0 F3000 ; Move Z Axis up little to prevent scratching of Heat Bed
G1 X0.1 Y20 Z0.3 F5000.0 ; Move to start position
G1 X0.1 Y200.0 Z0.3 F1500.0 E15 ; Draw the first line
G1 X0.4 Y200.0 Z0.3 F5000.0 ; Move to side a little
G1 X0.4 Y20 Z0.3 F1500.0 E30 ; Draw the second line
G92 E0 ; Reset Extruder
G1 Z2.0 F3000 ; Move Z Axis up little to prevent scratching of Heat Bed
G1 X5 Y20 Z0.3 F5000.0 ; Move over to prevent blob squish
G92 E0
G92 E0
G1 F2700 E-6
;LAYER_COUNT:156
;LAYER:0
M107
M204 S500
M205 X5 Y5
G0 F7500 X85.306 Y101.766 Z0.28
M205 X8 Y8
;TYPE:SKIRT
G1 F2700 E0
G1 F1500 X86.047 Y101.183 E0.04458
G1 X86.835 Y100.665 E0.08916
G1 X87.664 Y100.215 E0.13375
G1 X88.528 Y99.837 E0.17834
G1 X89.421 Y99.533 E0.22294
G1 X90.337 Y99.307 E0.26754
G1 X91.268 Y99.158 E0.31212
G1 X92.239 Y99.088 E0.35814
G1 X92.872 Y99.075 E0.38807
G1 X141.91 Y99.076 E2.70645
G1 X142.608 Y99.086 E2.73946
G1 X143.55 Y99.14 E2.78406
G1 X144.484 Y99.273 E2.82867
G1 X145.403 Y99.484 E2.87325
G1 X146.301 Y99.773 E2.91784
G1 X147.171 Y100.137 E2.96243
G1 X148.007 Y100.573 E3.00701
G1 X148.804 Y101.078 E3.05161
G1 X149.554 Y101.65 E3.09621
G1 X150.254 Y102.282 E3.14079
G1 X150.897 Y102.972 E3.18538
G1 X151.48 Y103.713 E3.22996
G1 X151.998 Y104.502 E3.27458
G1 X152.447 Y105.331 E3.31915
G1 X152.824 Y106.195 E3.36372
G1 X153.127 Y107.089 E3.40835
G1 X153.353 Y108.004 E3.45291
G1 X153.501 Y108.936 E3.49752
G1 X153.57 Y109.898 E3.54312
G1 X153.583 Y110.53 E3.573
G1 X153.583 Y124.214 E4.21995
G1 X153.574 Y124.93 E4.2538
G1 X153.522 Y125.872 E4.2984
G1 X153.391 Y126.806 E4.34299
G1 X153.181 Y127.725 E4.38756
G1 X152.894 Y128.623 E4.43213
G1 X152.531 Y129.494 E4.47674
G1 X152.097 Y130.331 E4.52131
G1 X151.593 Y131.129 E4.56594
G1 X151.023 Y131.88 E4.61051
G1 X150.392 Y132.581 E4.6551
G1 X149.703 Y133.226 E4.69972
G1 X148.962 Y133.81 E4.74432
G1 X148.175 Y134.329 E4.78889
G1 X147.346 Y134.78 E4.83351
G1 X146.483 Y135.158 E4.87805
G1 X145.59 Y135.463 E4.92267
G1 X144.675 Y135.69 E4.96724
G1 X143.743 Y135.84 E5.01187
G1 X142.729 Y135.911 E5.05992
G1 X142.052 Y135.925 E5.09194
G1 X93.106 Y135.924 E7.40597
G1 X92.408 Y135.915 E7.43897
G1 X91.466 Y135.863 E7.48357
G1 X90.532 Y135.731 E7.52817
G1 X89.612 Y135.521 E7.57278
G1 X88.714 Y135.233 E7.61737
G1 X87.843 Y134.871 E7.66196
G1 X87.007 Y134.436 E7.70651
G1 X86.209 Y133.932 E7.75114
G1 X85.458 Y133.362 E7.79571
G1 X84.758 Y132.73 E7.8403
G1 X84.113 Y132.041 E7.88492
G1 X83.529 Y131.301 E7.92948
G1 X83.01 Y130.513 E7.97409
G1 X82.56 Y129.684 E8.01869
G1 X82.181 Y128.82 E8.06329
G1 X81.877 Y127.928 E8.10784
G1 X81.65 Y127.012 E8.15246
G1 X81.501 Y126.081 E8.19704
G1 X81.43 Y125.092 E8.24391
G1 X81.417 Y124.458 E8.27389
G1 X81.418 Y110.723 E8.92325
G1 X81.427 Y110.058 E8.95469
G1 X81.48 Y109.117 E8.99925
G1 X81.612 Y108.183 E9.04384
G1 X81.823 Y107.264 E9.08842
G1 X82.111 Y106.365 E9.13305
G1 X82.474 Y105.495 E9.17762
G1 X82.91 Y104.658 E9.22224
G1 X83.414 Y103.862 E9.26678
G1 X83.985 Y103.111 E9.31138
G1 X84.617 Y102.41 E9.356
G1 X85.306 Y101.766 E9.40059
M205 X5 Y5
G0 F7500 X85.744 Y101.986
M205 X8 Y8
G1 F1500 X86.48 Y101.428 E9.44426
G1 X87.262 Y100.936 E9.48793
G1 X88.084 Y100.514 E9.53162
G1 X88.939 Y100.164 E9.5753
G1 X89.821 Y99.889 E9.61897
G1 X90.723 Y99.692 E9.66262
G1 X91.64 Y99.573 E9.70634
G1 X92.252 Y99.538 E9.73532
G1 X92.872 Y99.525 E9.76464
G1 X141.751 Y99.525 E12.0755
G1 X142.602 Y99.536 E12.11574
G1 X143.524 Y99.589 E12.1594
G1 X144.439 Y99.722 E12.20311
G1 X145.338 Y99.933 E12.24677
G1 X146.216 Y100.222 E12.29047
G1 X147.065 Y100.585 E12.33412
G1 X147.88 Y101.02 E12.3778
G1 X148.655 Y101.524 E12.42151
G1 X149.382 Y102.093 E12.46515
G1 X150.058 Y102.723 E12.50884
G1 X150.677 Y103.409 E12.55252
G1 X151.234 Y104.146 E12.5962
G1 X151.726 Y104.928 E12.63988
G1 X152.148 Y105.75 E12.68356
G1 X152.497 Y106.606 E12.72726
G1 X152.771 Y107.488 E12.77093
G1 X152.968 Y108.391 E12.81462
G1 X153.086 Y109.307 E12.85829
G1 X153.12 Y109.911 E12.88689
G1 X153.133 Y110.53 E12.91616
G1 X153.133 Y124.208 E13.56282
G1 X153.124 Y124.924 E13.59667
G1 X153.073 Y125.847 E13.64037
G1 X152.941 Y126.761 E13.68403
G1 X152.732 Y127.661 E13.72771
G1 X152.445 Y128.539 E13.77139
G1 X152.083 Y129.389 E13.81506
G1 X151.65 Y130.205 E13.85874
G1 X151.147 Y130.98 E13.90242
G1 X150.579 Y131.709 E13.94611
G1 X149.95 Y132.386 E13.9898
G1 X149.265 Y133.006 E14.03348
G1 X148.529 Y133.565 E14.07717
G1 X147.748 Y134.058 E14.12084
G1 X146.927 Y134.481 E14.1645
G1 X146.072 Y134.832 E14.2082
G1 X145.19 Y135.107 E14.25187
G1 X144.288 Y135.306 E14.29554
G1 X143.372 Y135.425 E14.33921
G1 X142.718 Y135.462 E14.37018
G1 X142.052 Y135.475 E14.40168
G1 X93.111 Y135.474 E16.71547
G1 X92.413 Y135.465 E16.74847
G1 X91.491 Y135.413 E16.79213
G1 X90.576 Y135.282 E16.83583
G1 X89.677 Y135.072 E16.87948
G1 X88.799 Y134.785 E16.92315
G1 X87.948 Y134.423 E16.96687
G1 X87.133 Y133.989 E17.01052
G1 X86.358 Y133.486 E17.0542
G1 X85.629 Y132.918 E17.09789
G1 X84.952 Y132.289 E17.14158
G1 X84.333 Y131.604 E17.18523
G1 X83.774 Y130.868 E17.22893
G1 X83.282 Y130.086 E17.27261
G1 X82.859 Y129.265 E17.31627
G1 X82.508 Y128.41 E17.35996
G1 X82.233 Y127.528 E17.40364
G1 X82.035 Y126.625 E17.44735
G1 X81.916 Y125.709 E17.49102
G1 X81.88 Y125.079 E17.52085
G1 X81.867 Y124.458 E17.55022
G1 X81.868 Y110.73 E18.19924
G1 X81.877 Y110.065 E18.23068
G1 X81.929 Y109.142 E18.27439
G1 X82.061 Y108.228 E18.31805
G1 X82.272 Y107.328 E18.36175
G1 X82.56 Y106.45 E18.40544
G1 X82.922 Y105.6 E18.44911
G1 X83.357 Y104.785 E18.49279
G1 X83.86 Y104.01 E18.53647
G1 X84.429 Y103.282 E18.58015
G1 X85.058 Y102.606 E18.62381
G1 X85.744 Y101.986 E18.66752
M205 X5 Y5
G0 F7500 X86.18 Y102.211
M205 X8 Y8
G1 F1500 X86.912 Y101.68 E18.71028
G1 X87.687 Y101.215 E18.75301
G1 X88.501 Y100.82 E18.79578
G1 X89.346 Y100.499 E18.83852
G1 X90.216 Y100.254 E18.88125
G1 X91.105 Y100.087 E18.92401
G1 X92.264 Y99.988 E18.979
G1 X92.872 Y99.975 E19.00776
G1 X141.751 Y99.975 E21.31862
G1 X142.595 Y99.986 E21.35852
G1 X143.498 Y100.039 E21.40129
G1 X144.393 Y100.171 E21.44406
G1 X145.272 Y100.382 E21.4868
G1 X146.129 Y100.67 E21.52954
G1 X146.957 Y101.033 E21.57228
G1 X147.751 Y101.467 E21.61506
G1 X148.502 Y101.969 E21.65777
G1 X149.207 Y102.536 E21.70054
G1 X149.858 Y103.163 E21.74327
G1 X150.452 Y103.845 E21.78603
G1 X150.983 Y104.577 E21.82878
G1 X151.447 Y105.353 E21.87153
G1 X151.841 Y106.167 E21.91428
G1 X152.161 Y107.013 E21.95705
G1 X152.406 Y107.883 E21.99978
G1 X152.572 Y108.772 E22.04253
G1 X152.67 Y109.923 E22.09715
G1 X152.683 Y110.53 E22.12585
G1 X152.683 Y124.203 E22.77227
G1 X152.674 Y124.919 E22.80612
G1 X152.623 Y125.821 E22.84884
G1 X152.492 Y126.716 E22.8916
G1 X152.283 Y127.596 E22.93436
G1 X151.996 Y128.453 E22.97709
G1 X151.635 Y129.282 E23.01984
G1 X151.203 Y130.076 E23.06257
G1 X150.701 Y130.829 E23.10536
G1 X150.136 Y131.534 E23.14807
G1 X149.51 Y132.187 E23.19084
G1 X148.829 Y132.782 E23.23359
G1 X148.098 Y133.314 E23.27633
G1 X147.323 Y133.779 E23.31906
G1 X146.509 Y134.175 E23.36186
G1 X145.664 Y134.497 E23.40461
G1 X144.794 Y134.743 E23.44735
G1 X143.906 Y134.911 E23.49008
G1 X142.707 Y135.012 E23.54697
G1 X142.052 Y135.025 E23.57794
G1 X93.117 Y135.024 E25.89145
G1 X92.419 Y135.015 E25.92445
G1 X91.516 Y134.964 E25.96721
G1 X90.622 Y134.832 E26.00993
G1 X89.742 Y134.623 E26.0527
G1 X88.885 Y134.336 E26.09542
G1 X88.056 Y133.975 E26.13817
G1 X87.262 Y133.542 E26.18093
G1 X86.51 Y133.04 E26.22368
G1 X85.804 Y132.474 E26.26645
G1 X85.152 Y131.848 E26.30919
G1 X84.557 Y131.167 E26.35194
G1 X84.025 Y130.436 E26.39468
G1 X83.56 Y129.661 E26.43741
G1 X83.165 Y128.847 E26.48019
G1 X82.843 Y128.002 E26.52294
G1 X82.598 Y127.132 E26.56567
G1 X82.43 Y126.244 E26.6084
G1 X82.33 Y125.067 E26.66424
G1 X82.317 Y124.458 E26.69304
G1 X82.318 Y110.736 E27.34178
G1 X82.327 Y110.071 E27.37322
G1 X82.379 Y109.168 E27.41598
G1 X82.511 Y108.273 E27.45875
G1 X82.721 Y107.394 E27.50148
G1 X83.008 Y106.537 E27.54421
G1 X83.37 Y105.708 E27.58698
G1 X83.804 Y104.914 E27.62976
G1 X84.306 Y104.162 E27.6725
G1 X84.872 Y103.457 E27.71524
G1 X85.498 Y102.805 E27.75798
G1 X86.18 Y102.211 E27.80073
M205 X5 Y5
G1 F2700 E21.80073
;MESH:sujeta_boton_petiso.stl
G0 F7500 X92.981 Y109.535
G0 X92.981 Y110.639
G0 X93.422 Y123.92
G1 F2700 E27.80073
G0 F7500 X93.242 Y124.1
M205 X8 Y8
;TYPE:WALL-INNER
G1 F1500 X141.759 Y124.1 E30.34934
G1 X141.758 Y110.9 E31.04274
G1 X137.011 Y110.9 E31.2921
G1 X93.243 Y110.901 E33.59125
G1 X93.242 Y124.1 E34.28459
M205 X5 Y5
G0 F7500 X92.967 Y124.375
M205 X8 Y8
;TYPE:WALL-OUTER
G1 F1500 X142.034 Y124.375 E36.60434
G1 X142.033 Y110.625 E37.25441
G1 X137.011 Y110.625 E37.49183
G1 X92.968 Y110.626 E39.57406
G1 X92.967 Y124.375 E40.22408
M205 X5 Y5
G0 F7500 X93.167 Y124.375
G1 F2700 E34.22408
G0 F7500 X93.422 Y123.92
G0 X113.041 Y123.85
G0 X112.928 Y123.091
G0 X113.869 Y122.543
G0 X114.296 Y121.984
G0 X114.511 Y121.421
G1 F2700 E40.22408
G0 F7500 X114.37 Y121.368
M205 X8 Y8
;TYPE:WALL-INNER
G1 F1500 X114.245 Y121.775 E40.24644
G1 X113.933 Y122.241 E40.2759
G1 X113.741 Y122.433 E40.29016
G1 X113.267 Y122.75 E40.32012
G1 X112.745 Y122.9 E40.34865
G1 X98.232 Y122.9 E41.11102
G1 X97.724 Y122.746 E41.1389
G1 X97.257 Y122.432 E41.16847
G1 X97.067 Y122.242 E41.18258
G1 X96.754 Y121.776 E41.21207
G1 X96.6 Y121.246 E41.24106
G1 X96.6 Y113.73 E41.63588
G1 X96.756 Y113.222 E41.66379
G1 X97.067 Y112.759 E41.69309
G1 X97.258 Y112.567 E41.70732
G1 X97.725 Y112.253 E41.73688
G1 X98.247 Y112.101 E41.76544
G1 X112.769 Y112.1 E42.52828
G1 X113.275 Y112.255 E42.55608
G1 X113.741 Y112.567 E42.58554
G1 X113.933 Y112.759 E42.59981
G1 X114.247 Y113.228 E42.62945
G1 X114.4 Y113.734 E42.65722
G1 X114.4 Y121.162 E43.04742
G1 X114.37 Y121.368 E43.05835
M205 X5 Y5
G0 F7500 X114.583 Y121.432
G0 X113.998 Y122.499
G0 X113.658 Y122.158
M205 X8 Y8
;TYPE:WALL-OUTER
G1 F1500 X113.151 Y122.498 E43.08721
G1 X112.712 Y122.625 E43.10882
G1 X98.272 Y122.625 E43.7915
G1 X97.845 Y122.496 E43.81259
G1 X97.342 Y122.158 E43.84124
G1 X97.005 Y121.656 E43.86983
G1 X96.875 Y121.213 E43.89165
G1 X96.875 Y113.771 E44.24349
G1 X97.008 Y113.34 E44.26481
G1 X97.341 Y112.843 E44.2931
G1 X97.844 Y112.505 E44.32175
G1 X98.28 Y112.376 E44.34324
G1 X112.728 Y112.375 E45.02631
G1 X113.158 Y112.507 E45.04757
G1 X113.658 Y112.842 E45.07603
G1 X113.994 Y113.344 E45.10458
G1 X114.125 Y113.778 E45.12602
G1 X114.125 Y121.162 E45.47511
G1 X114.107 Y121.287 E45.48108
G1 X113.993 Y121.658 E45.49943
G1 X113.658 Y122.158 E45.52788
M205 X5 Y5
G0 F7500 X113.492 Y122.269
G1 F2700 E39.52788
G0 F7500 X113.729 Y122.623
G0 X114.496 Y121.744
G0 X126.37 Y118.812
G0 X126.465 Y115.745
G0 X126.662 Y114.951
G0 X127.034 Y114.223
G0 X127.574 Y113.589
G0 X128.204 Y113.122
G0 X128.905 Y112.807
G0 X129.953 Y112.636
G0 X137.427 Y112.662
G0 X138.458 Y112.948
G0 X138.856 Y113.184
G0 X139.395 Y113.581
G1 F2700 E45.52788
G0 F7500 X139.301 Y113.697
M205 X8 Y8
;TYPE:WALL-INNER
G1 F1500 X139.591 Y113.999 E45.54988
G1 X139.876 Y114.386 E45.57513
G1 X140.06 Y114.721 E45.5952
G1 X140.186 Y115.014 E45.61196
G1 X140.297 Y115.367 E45.6314
G1 X140.382 Y115.857 E45.65752
G1 X140.398 Y116.134 E45.6721
G1 X140.399 Y118.843 E45.8144
G1 X140.382 Y119.14 E45.83003
G1 X140.323 Y119.518 E45.85012
G1 X140.185 Y119.991 E45.87601
G1 X140.027 Y120.347 E45.89647
G1 X139.816 Y120.705 E45.9183
G1 X139.594 Y120.997 E45.93756
G1 X139.324 Y121.282 E45.95819
G1 X139.086 Y121.485 E45.97462
G1 X138.766 Y121.706 E45.99505
G1 X138.458 Y121.872 E46.01343
G1 X138.099 Y122.017 E46.03377
G1 X137.772 Y122.112 E46.05165
G1 X137.391 Y122.178 E46.07197
G1 X137.061 Y122.2 E46.08934
G1 X129.952 Y122.2 E46.46278
G1 X129.611 Y122.178 E46.48073
G1 X129.221 Y122.11 E46.50152
G1 X128.897 Y122.015 E46.51926
G1 X128.559 Y121.88 E46.53838
G1 X128.302 Y121.746 E46.5536
G1 X128.002 Y121.552 E46.57237
G1 X127.637 Y121.245 E46.59742
G1 X127.354 Y120.936 E46.61943
G1 X127.123 Y120.612 E46.64034
G1 X126.939 Y120.279 E46.66032
G1 X126.784 Y119.906 E46.68154
G1 X126.675 Y119.511 E46.70307
G1 X126.626 Y119.214 E46.71888
G1 X126.601 Y118.854 E46.73783
G1 X126.601 Y116.145 E46.88014
G1 X126.618 Y115.858 E46.89524
G1 X126.695 Y115.409 E46.91917
G1 X126.815 Y115.009 E46.94111
G1 X126.935 Y114.727 E46.95721
G1 X127.138 Y114.364 E46.97906
G1 X127.406 Y114.003 E47.00267
G1 X127.676 Y113.718 E47.0233
G1 X127.914 Y113.515 E47.03973
G1 X128.234 Y113.294 E47.06016
G1 X128.542 Y113.128 E47.07854
G1 X128.901 Y112.983 E47.09887
G1 X129.228 Y112.888 E47.11676
G1 X129.609 Y112.822 E47.13707
G1 X129.939 Y112.8 E47.15445
G1 X137.048 Y112.8 E47.52789
G1 X137.389 Y112.822 E47.54584
G1 X137.779 Y112.89 E47.56663
G1 X138.103 Y112.985 E47.58437
G1 X138.441 Y113.12 E47.60349
G1 X138.756 Y113.289 E47.62226
G1 X138.997 Y113.448 E47.63743
G1 X139.301 Y113.697 E47.65807
M205 X5 Y5
G0 F7500 X139.124 Y113.908
M205 X8 Y8
;TYPE:WALL-OUTER
G1 F1500 X139.423 Y114.226 E47.67871
G1 X139.636 Y114.521 E47.69591
G1 X139.808 Y114.83 E47.71263
G1 X139.934 Y115.123 E47.72771
G1 X140.034 Y115.446 E47.7437
G1 X140.108 Y115.873 E47.76418
G1 X140.124 Y116.15 E47.7773
G1 X140.125 Y118.827 E47.90386
G1 X140.108 Y119.125 E47.91797
G1 X140.052 Y119.47 E47.9345
G1 X139.932 Y119.883 E47.95483
G1 X139.789 Y120.21 E47.9717
G1 X139.596 Y120.541 E47.98982
G1 X139.392 Y120.81 E48.00578
G1 X139.145 Y121.073 E48.02284
G1 X138.869 Y121.305 E48.03988
G1 X138.612 Y121.478 E48.05453
G1 X138.331 Y121.628 E48.06959
G1 X137.998 Y121.761 E48.08654
G1 X137.654 Y121.856 E48.10341
G1 X137.302 Y121.911 E48.12026
G1 X137.046 Y121.925 E48.13238
G1 X129.966 Y121.925 E48.4671
G1 X129.7 Y121.911 E48.47969
G1 X129.345 Y121.856 E48.49668
G1 X128.996 Y121.758 E48.51382
G1 X128.686 Y121.636 E48.52957
G1 X128.43 Y121.502 E48.54323
G1 X128.115 Y121.293 E48.5611
G1 X127.837 Y121.056 E48.57837
G1 X127.576 Y120.773 E48.59657
G1 X127.362 Y120.477 E48.61384
G1 X127.212 Y120.211 E48.62828
G1 X127.048 Y119.829 E48.64793
G1 X126.946 Y119.467 E48.66571
G1 X126.892 Y119.126 E48.68203
G1 X126.875 Y118.838 E48.69567
G1 X126.875 Y116.161 E48.82223
G1 X126.892 Y115.874 E48.83583
G1 X126.959 Y115.485 E48.85449
G1 X127.068 Y115.117 E48.87263
G1 X127.188 Y114.835 E48.88712
G1 X127.404 Y114.459 E48.90762
G1 X127.578 Y114.225 E48.92141
G1 X127.855 Y113.927 E48.94064
G1 X128.131 Y113.695 E48.95769
G1 X128.388 Y113.522 E48.97234
G1 X128.669 Y113.372 E48.9874
G1 X129.002 Y113.239 E49.00435
G1 X129.346 Y113.144 E49.02122
G1 X129.698 Y113.089 E49.03806
G1 X129.954 Y113.075 E49.05019
G1 X137.034 Y113.075 E49.38491
G1 X137.345 Y113.094 E49.39964
G1 X137.704 Y113.155 E49.41685
G1 X138.004 Y113.242 E49.43162
G1 X138.314 Y113.364 E49.44737
G1 X138.568 Y113.497 E49.46093
G1 X138.845 Y113.678 E49.47657
G1 X139.124 Y113.908 E49.49367
M205 X5 Y5
G0 F7500 X139.261 Y114.053
G0 X139.181 Y113.24
M205 X8 Y8
;TYPE:SKIN
G1 F1500 X139.568 Y113.573 E49.50868
G1 X139.868 Y113.906 E49.52187
G1 X140.121 Y114.26 E49.53467
G1 X140.309 Y114.609 E49.54633
G1 X140.476 Y115.008 E49.55905
G1 X140.592 Y115.425 E49.57179
G1 X140.655 Y115.84 E49.58413
G1 X140.671 Y116.121 E49.59241
G1 X140.673 Y118.807 E49.67143
G1 X140.643 Y119.269 E49.68505
G1 X140.567 Y119.673 E49.69714
G1 X140.436 Y120.098 E49.71022
G1 X140.26 Y120.493 E49.72294
G1 X140.044 Y120.856 E49.73537
G1 X139.796 Y121.183 E49.74744
G1 X139.579 Y121.415 E49.75679
G1 X139.258 Y121.699 E49.7694
G1 X138.864 Y121.97 E49.78346
G1 X138.491 Y122.157 E49.79574
G1 X138.185 Y122.278 E49.80542
G1 X137.778 Y122.395 E49.81787
G1 X137.425 Y122.449 E49.82838
G1 X137.077 Y122.472 E49.83864
G1 X129.934 Y122.472 E50.04876
G1 X129.574 Y122.449 E50.05938
G1 X129.146 Y122.373 E50.07216
G1 X128.864 Y122.293 E50.08079
G1 X128.535 Y122.17 E50.09112
G1 X128.162 Y121.98 E50.10343
G1 X127.84 Y121.772 E50.11471
G1 X127.468 Y121.467 E50.12886
