;FLAVOR:Marlin
M117 Time Left 0h44m25s
;TIME:2665
;Filament used: 1.62289m
;Layer height: 0.2
;MINX:81.417
;MINY:90.771
;MINZ:0.28
;MAXX:153.583
;MAXY:143.236
;MAXZ:33.08
;POSTPROCESSED
;Generated with Cura_SteamEngine 5.2.1
M140 S60
M105
M190 S60
M104 S205
M105
M109 S205
M82 ;absolute extrusion mode
; Ender 3 Custom Start G-code
G92 E0 ; Reset Extruder
G28 ; Home all axes
G1 Z2.0 F3000 ; Move Z Axis up little to prevent scratching of Heat Bed
G1 X0.1 Y20 Z0.3 F5000.0 ; Move to start position
G1 X0.1 Y200.0 Z0.3 F1500.0 E15 ; Draw the first line
G1 X0.4 Y200.0 Z0.3 F5000.0 ; Move to side a little
G1 X0.4 Y20 Z0.3 F1500.0 E30 ; Draw the second line
G92 E0 ; Reset Extruder
G1 Z2.0 F3000 ; Move Z Axis up little to prevent scratching of Heat Bed
G1 X5 Y20 Z0.3 F5000.0 ; Move over to prevent blob squish
G92 E0
G92 E0
G1 F2700 E-6
;LAYER_COUNT:165
;LAYER:0
M107
M204 S500
M205 X5 Y5
G0 F7500 X85.306 Y93.462 Z0.28
M205 X8 Y8
;TYPE:SKIRT
G1 F2700 E0
G1 F1500 X86.047 Y92.879 E0.04458
G1 X86.835 Y92.361 E0.08916
G1 X87.664 Y91.911 E0.13375
G1 X88.528 Y91.533 E0.17834
G1 X89.421 Y91.229 E0.22294
G1 X90.337 Y91.003 E0.26754
G1 X91.268 Y90.854 E0.31212
G1 X92.239 Y90.784 E0.35814
G1 X92.872 Y90.771 E0.38807
G1 X141.91 Y90.772 E2.70645
G1 X142.608 Y90.782 E2.73946
G1 X143.55 Y90.836 E2.78406
G1 X144.484 Y90.969 E2.82867
G1 X145.403 Y91.18 E2.87325
G1 X146.301 Y91.469 E2.91784
G1 X147.171 Y91.833 E2.96243
G1 X148.007 Y92.269 E3.00701
G1 X148.804 Y92.774 E3.05161
G1 X149.554 Y93.346 E3.09621
G1 X150.254 Y93.978 E3.14079
G1 X150.897 Y94.668 E3.18538
G1 X151.48 Y95.409 E3.22996
G1 X151.998 Y96.198 E3.27458
G1 X152.447 Y97.027 E3.31915
G1 X152.824 Y97.891 E3.36372
G1 X153.127 Y98.785 E3.40835
G1 X153.353 Y99.7 E3.45291
G1 X153.501 Y100.632 E3.49752
G1 X153.57 Y101.594 E3.54312
G1 X153.583 Y102.226 E3.573
G1 X153.583 Y115.902 E4.21957
G1 X153.573 Y116.642 E4.25456
G1 X153.52 Y117.584 E4.29916
G1 X153.388 Y118.518 E4.34376
G1 X153.177 Y119.437 E4.38834
G1 X152.889 Y120.335 E4.43292
G1 X152.526 Y121.206 E4.47753
G1 X152.09 Y122.042 E4.52211
G1 X151.586 Y122.839 E4.56669
G1 X151.015 Y123.59 E4.61129
G1 X150.383 Y124.29 E4.65588
G1 X149.694 Y124.934 E4.70047
G1 X148.953 Y125.518 E4.74507
G1 X148.401 Y125.891 E4.77657
G1 X147.839 Y126.247 E4.80802
G1 X145.68 Y127.663 E4.93009
G1 X143.607 Y129.109 E5.04958
G1 X141.609 Y130.587 E5.16707
G1 X139.635 Y132.136 E5.2857
G1 X137.659 Y133.78 E5.40723
G1 X135.807 Y135.411 E5.5239
G1 X133.979 Y137.114 E5.64201
G1 X131.617 Y139.459 E5.79937
G1 X130.771 Y140.217 E5.85307
G1 X130.448 Y140.478 E5.8727
G1 X129.69 Y141.039 E5.91729
G1 X128.887 Y141.534 E5.96188
G1 X128.286 Y141.847 E5.99392
G1 X127.844 Y142.06 E6.01712
G1 X126.977 Y142.433 E6.06174
G1 X126.083 Y142.731 E6.10629
G1 X124.877 Y143.006 E6.16477
G1 X124.512 Y143.068 E6.18227
G1 X123.576 Y143.186 E6.22688
G1 X122.831 Y143.224 E6.26214
G1 X122.096 Y143.236 E6.2969
G1 X112.895 Y143.235 E6.73189
G1 X112.211 Y143.225 E6.76424
G1 X111.27 Y143.171 E6.8088
G1 X110.568 Y143.078 E6.84227
G1 X110.173 Y143.013 E6.8612
G1 X109.249 Y142.821 E6.90582
G1 X108.346 Y142.551 E6.95038
G1 X107.124 Y142.046 E7.01289
G1 X106.691 Y141.836 E7.03564
G1 X105.861 Y141.389 E7.08021
G1 X105.071 Y140.873 E7.12482
G1 X104.606 Y140.521 E7.15239
G1 X104.294 Y140.272 E7.17126
G1 X103.367 Y139.444 E7.23003
G1 X101.492 Y137.569 E7.35539
G1 X99.687 Y135.863 E7.47281
G1 X97.79 Y134.167 E7.59311
G1 X95.867 Y132.544 E7.71208
G1 X93.931 Y131.001 E7.82912
G1 X91.892 Y129.469 E7.9497
G1 X89.885 Y128.048 E8.06596
G1 X87.73 Y126.611 E8.18841
G1 X86.773 Y126.005 E8.24196
G1 X86.409 Y125.764 E8.2626
G1 X85.646 Y125.211 E8.30715
G1 X84.932 Y124.594 E8.35177
G1 X84.272 Y123.92 E8.39637
G1 X83.673 Y123.192 E8.44094
G1 X83.137 Y122.416 E8.48552
G1 X82.668 Y121.597 E8.53014
G1 X82.271 Y120.742 E8.57471
G1 X81.948 Y119.856 E8.61929
G1 X81.701 Y118.945 E8.66392
G1 X81.532 Y118.017 E8.70851
G1 X81.43 Y116.799 E8.7663
G1 X81.417 Y116.166 E8.79623
G1 X81.418 Y102.419 E9.44615
G1 X81.427 Y101.754 E9.47759
G1 X81.48 Y100.813 E9.52215
G1 X81.612 Y99.879 E9.56675
G1 X81.823 Y98.96 E9.61133
G1 X82.111 Y98.061 E9.65596
G1 X82.474 Y97.191 E9.70052
G1 X82.91 Y96.354 E9.74514
G1 X83.414 Y95.558 E9.78968
G1 X83.985 Y94.807 E9.83429
G1 X84.617 Y94.106 E9.87891
G1 X85.306 Y93.462 E9.9235
M205 X5 Y5
G0 F7500 X85.744 Y93.682
M205 X8 Y8
G1 F1500 X86.48 Y93.124 E9.96716
G1 X87.262 Y92.632 E10.01084
G1 X88.084 Y92.21 E10.05452
G1 X88.939 Y91.86 E10.0982
G1 X89.821 Y91.585 E10.14188
G1 X90.723 Y91.388 E10.18553
G1 X91.64 Y91.269 E10.22925
G1 X92.252 Y91.234 E10.25823
G1 X92.872 Y91.221 E10.28755
G1 X141.751 Y91.221 E12.59841
G1 X142.602 Y91.232 E12.63864
G1 X143.524 Y91.285 E12.68231
G1 X144.439 Y91.418 E12.72602
G1 X145.338 Y91.629 E12.76968
G1 X146.216 Y91.918 E12.81338
G1 X147.065 Y92.281 E12.85703
G1 X147.88 Y92.716 E12.90071
G1 X148.655 Y93.22 E12.94441
G1 X149.382 Y93.789 E12.98806
G1 X150.058 Y94.419 E13.03174
G1 X150.677 Y95.105 E13.07543
G1 X151.234 Y95.842 E13.1191
G1 X151.726 Y96.624 E13.16278
G1 X152.148 Y97.446 E13.20647
G1 X152.497 Y98.302 E13.25017
G1 X152.771 Y99.184 E13.29383
G1 X152.968 Y100.087 E13.33753
G1 X153.086 Y101.003 E13.38119
G1 X153.12 Y101.607 E13.40979
G1 X153.133 Y102.226 E13.43907
G1 X153.133 Y115.896 E14.08534
G1 X153.123 Y116.636 E14.12033
G1 X153.071 Y117.559 E14.16404
G1 X152.939 Y118.473 E14.2077
G1 X152.728 Y119.373 E14.2514
G1 X152.44 Y120.251 E14.29509
G1 X152.078 Y121.101 E14.33877
G1 X151.643 Y121.916 E14.38244
G1 X151.14 Y122.691 E14.42612
G1 X150.571 Y123.419 E14.46981
G1 X149.942 Y124.095 E14.51346
G1 X149.257 Y124.715 E14.55714
G1 X148.16 Y125.511 E14.62122
G1 X147.601 Y125.865 E14.6525
G1 X145.431 Y127.288 E14.77518
G1 X143.364 Y128.73 E14.89433
G1 X141.305 Y130.254 E15.01544
G1 X139.351 Y131.787 E15.13286
G1 X137.393 Y133.416 E15.25328
G1 X135.502 Y135.081 E15.37239
G1 X133.658 Y136.799 E15.49155
G1 X131.3 Y139.14 E15.64863
G1 X130.488 Y139.867 E15.70016
G1 X130.165 Y140.128 E15.71979
G1 X129.422 Y140.677 E15.76347
G1 X128.634 Y141.16 E15.80717
G1 X128.09 Y141.442 E15.83613
G1 X127.648 Y141.655 E15.85933
G1 X126.799 Y142.019 E15.903
G1 X125.922 Y142.309 E15.94667
G1 X124.802 Y142.562 E16.00096
G1 X124.437 Y142.624 E16.01846
G1 X123.52 Y142.739 E16.06215
G1 X122.823 Y142.774 E16.09515
G1 X122.088 Y142.786 E16.1299
G1 X112.902 Y142.785 E16.56419
G1 X112.218 Y142.775 E16.59653
G1 X111.296 Y142.721 E16.64019
G1 X110.641 Y142.634 E16.67143
G1 X110.246 Y142.569 E16.69036
G1 X109.341 Y142.38 E16.73407
G1 X108.457 Y142.113 E16.77773
G1 X107.321 Y141.641 E16.83588
G1 X106.888 Y141.431 E16.85864
G1 X106.075 Y140.992 E16.90232
G1 X105.303 Y140.485 E16.94598
G1 X104.887 Y140.17 E16.97065
G1 X104.575 Y139.921 E16.98952
G1 X103.686 Y139.125 E17.04594
G1 X101.837 Y137.276 E17.16956
G1 X99.978 Y135.518 E17.29053
G1 X98.099 Y133.839 E17.40966
G1 X96.178 Y132.218 E17.52849
G1 X94.184 Y130.628 E17.64906
G1 X92.175 Y129.118 E17.76788
G1 X90.095 Y127.646 E17.88835
G1 X87.989 Y126.242 E18.00801
G1 X87.022 Y125.63 E18.06212
G1 X86.658 Y125.389 E18.08276
G1 X85.91 Y124.846 E18.12646
G1 X85.212 Y124.24 E18.17016
G1 X84.57 Y123.577 E18.21379
G1 X83.987 Y122.86 E18.25748
G1 X83.468 Y122.096 E18.30114
G1 X83.017 Y121.289 E18.34485
G1 X82.637 Y120.447 E18.38852
G1 X82.332 Y119.575 E18.4322
G1 X82.103 Y118.68 E18.47588
G1 X81.953 Y117.768 E18.51957
G1 X81.88 Y116.786 E18.56613
G1 X81.867 Y116.166 E18.59544
G1 X81.868 Y102.426 E19.24503
G1 X81.877 Y101.761 E19.27648
G1 X81.929 Y100.838 E19.32018
G1 X82.061 Y99.924 E19.36384
G1 X82.272 Y99.024 E19.40754
G1 X82.56 Y98.146 E19.45123
G1 X82.922 Y97.296 E19.49491
G1 X83.357 Y96.481 E19.53858
G1 X83.86 Y95.706 E19.58226
G1 X84.429 Y94.978 E19.62595
G1 X85.058 Y94.302 E19.6696
G1 X85.744 Y93.682 E19.71332
M205 X5 Y5
G0 F7500 X86.18 Y93.907
M205 X8 Y8
G1 F1500 X86.912 Y93.376 E19.75607
G1 X87.687 Y92.911 E19.7988
G1 X88.501 Y92.516 E19.84157
G1 X89.346 Y92.195 E19.88431
G1 X90.216 Y91.95 E19.92704
G1 X91.105 Y91.783 E19.96981
G1 X92.264 Y91.684 E20.0248
G1 X92.872 Y91.671 E20.05355
G1 X141.751 Y91.671 E22.36441
G1 X142.595 Y91.682 E22.40432
G1 X143.498 Y91.735 E22.44708
G1 X144.393 Y91.867 E22.48985
G1 X145.272 Y92.078 E22.53259
G1 X146.129 Y92.366 E22.57533
G1 X146.957 Y92.729 E22.61808
G1 X147.751 Y93.163 E22.66086
G1 X148.502 Y93.665 E22.70356
G1 X149.207 Y94.232 E22.74634
G1 X149.858 Y94.859 E22.78907
G1 X150.452 Y95.541 E22.83182
G1 X150.983 Y96.273 E22.87458
G1 X151.447 Y97.049 E22.91732
G1 X151.841 Y97.863 E22.96008
G1 X152.161 Y98.709 E23.00284
G1 X152.406 Y99.579 E23.04557
G1 X152.572 Y100.468 E23.08833
G1 X152.67 Y101.619 E23.14294
G1 X152.683 Y102.226 E23.17164
G1 X152.683 Y115.89 E23.81764
G1 X152.673 Y116.63 E23.85263
G1 X152.621 Y117.533 E23.89539
G1 X152.489 Y118.427 E23.93811
G1 X152.279 Y119.307 E23.98089
G1 X151.992 Y120.164 E24.02361
G1 X151.63 Y120.993 E24.06638
G1 X151.197 Y121.786 E24.1091
G1 X150.695 Y122.539 E24.15188
G1 X150.128 Y123.243 E24.19462
G1 X149.502 Y123.895 E24.23735
G1 X148.82 Y124.49 E24.28014
G1 X147.919 Y125.131 E24.33242
G1 X147.318 Y125.511 E24.36603
G1 X145.192 Y126.906 E24.48625
G1 X143.096 Y128.367 E24.60704
G1 X141.04 Y129.889 E24.72798
G1 X139.066 Y131.438 E24.84661
G1 X137.088 Y133.083 E24.96823
G1 X135.196 Y134.749 E25.08742
G1 X133.352 Y136.468 E25.2066
G1 X130.983 Y138.82 E25.36443
G1 X130.205 Y139.517 E25.41381
G1 X129.882 Y139.778 E25.43344
G1 X129.155 Y140.315 E25.47617
G1 X128.382 Y140.785 E25.51894
G1 X127.895 Y141.036 E25.54484
G1 X127.453 Y141.249 E25.56804
G1 X126.622 Y141.605 E25.61078
G1 X125.762 Y141.887 E25.65357
G1 X124.726 Y142.119 E25.70376
G1 X124.361 Y142.181 E25.72127
G1 X123.464 Y142.292 E25.764
G1 X122.816 Y142.324 E25.79467
G1 X122.081 Y142.336 E25.82942
G1 X112.909 Y142.335 E26.26305
G1 X112.225 Y142.325 E26.29539
G1 X111.322 Y142.272 E26.33816
G1 X110.714 Y142.19 E26.36716
G1 X110.319 Y142.125 E26.38609
G1 X109.434 Y141.939 E26.42884
G1 X108.569 Y141.676 E26.47158
G1 X107.517 Y141.236 E26.52549
G1 X107.084 Y141.026 E26.54825
G1 X106.289 Y140.596 E26.59098
G1 X105.535 Y140.097 E26.63372
G1 X105.168 Y139.818 E26.65552
G1 X104.856 Y139.569 E26.67439
G1 X104.004 Y138.807 E26.72843
G1 X102.146 Y136.949 E26.85266
G1 X100.268 Y135.174 E26.97482
G1 X98.408 Y133.511 E27.09278
G1 X96.451 Y131.859 E27.21386
G1 X94.471 Y130.281 E27.33356
G1 X92.446 Y128.76 E27.4533
G1 X90.363 Y127.285 E27.57397
G1 X88.229 Y125.862 E27.69523
G1 X87.27 Y125.255 E27.74889
G1 X86.906 Y125.014 E27.76952
G1 X86.175 Y124.482 E27.81227
G1 X85.494 Y123.887 E27.85502
G1 X84.868 Y123.235 E27.89775
G1 X84.302 Y122.53 E27.9405
G1 X83.8 Y121.777 E27.98328
G1 X83.367 Y120.983 E28.02604
G1 X83.006 Y120.154 E28.06879
G1 X82.719 Y119.297 E28.11152
G1 X82.51 Y118.417 E28.15428
G1 X82.378 Y117.523 E28.197
G1 X82.33 Y116.774 E28.23248
G1 X82.317 Y116.166 E28.26123
G1 X82.318 Y102.432 E28.91054
G1 X82.327 Y101.767 E28.94198
G1 X82.379 Y100.864 E28.98474
G1 X82.511 Y99.969 E29.02751
G1 X82.721 Y99.09 E29.07024
G1 X83.008 Y98.233 E29.11297
G1 X83.37 Y97.404 E29.15574
G1 X83.804 Y96.61 E29.19852
G1 X84.306 Y95.858 E29.24126
G1 X84.872 Y95.153 E29.284
G1 X85.498 Y94.501 E29.32674
G1 X86.18 Y93.907 E29.3695
M205 X5 Y5
G1 F2700 E23.3695
;MESH:sujeta_boton_usb.stl
G0 F7500 X92.981 Y101.231
G0 X92.981 Y102.335
G0 X93.423 Y102.777
G1 F2700 E29.3695
G0 F7500 X93.243 Y102.597
M205 X8 Y8
;TYPE:WALL-INNER
G1 F1500 X93.243 Y115.795 E30.06279
G1 X141.759 Y115.796 E32.61135
G1 X141.759 Y104.141 E33.22359
G1 X141.758 Y102.596 E33.30474
G1 X93.243 Y102.597 E35.85325
M205 X5 Y5
G0 F7500 X92.968 Y102.322
M205 X8 Y8
;TYPE:WALL-OUTER
G1 F1500 X92.968 Y116.07 E36.50322
G1 X142.034 Y116.071 E38.82292
G1 X142.034 Y104.141 E39.38694
G1 X142.033 Y102.321 E39.47298
G1 X92.968 Y102.322 E41.79264
M205 X5 Y5
G0 F7500 X92.968 Y102.522
G1 F2700 E35.79264
G0 F7500 X93.423 Y102.777
G0 X93.492 Y105.533
G0 X96.369 Y105.534
G0 X96.461 Y113.065
G0 X96.59 Y113.497
G0 X96.842 Y113.914
G1 F2700 E41.79264
G0 F7500 X96.937 Y113.794
M205 X8 Y8
;TYPE:WALL-INNER
G1 F1500 X96.762 Y113.5 E41.81061
G1 X96.6 Y112.942 E41.84113
G1 X96.6 Y105.424 E42.23605
G1 X96.757 Y104.918 E42.26388
G1 X97.067 Y104.455 E42.29315
G1 X97.258 Y104.263 E42.30738
G1 X97.648 Y104.001 E42.33206
G1 X97.908 Y103.894 E42.34683
G1 X98.423 Y103.797 E42.37436
G1 X112.573 Y103.796 E43.11766
G1 X113.091 Y103.894 E43.14535
G1 X113.35 Y104.001 E43.16008
G1 X113.741 Y104.263 E43.1848
G1 X113.933 Y104.455 E43.19906
G1 X114.245 Y104.921 E43.22852
G1 X114.399 Y105.421 E43.256
G1 X114.4 Y112.857 E43.64662
G1 X114.37 Y113.062 E43.6575
G1 X114.235 Y113.505 E43.68183
G1 X114.062 Y113.795 E43.69957
G1 X113.602 Y114.256 E43.73378
G1 X113.307 Y114.433 E43.75185
G1 X112.746 Y114.596 E43.78254
G1 X98.234 Y114.596 E44.54486
G1 X97.69 Y114.431 E44.57472
G1 X97.398 Y114.256 E44.5926
G1 X96.937 Y113.794 E44.62689
M205 X5 Y5
G0 F7500 X97.025 Y113.421
M205 X8 Y8
;TYPE:WALL-OUTER
G1 F1500 X96.875 Y112.908 E44.65215
G1 X96.875 Y105.466 E45.00399
G1 X97.008 Y105.036 E45.02527
G1 X97.341 Y104.539 E45.05355
G1 X97.801 Y104.23 E45.07975
G1 X97.959 Y104.165 E45.08783
G1 X98.449 Y104.072 E45.11141
G1 X112.543 Y104.071 E45.77773
G1 X113.04 Y104.165 E45.80165
G1 X113.197 Y104.229 E45.80966
G1 X113.658 Y104.538 E45.8359
G1 X113.993 Y105.038 E45.86436
G1 X114.124 Y105.463 E45.88538
G1 X114.125 Y112.857 E46.23495
G1 X114.107 Y112.981 E46.24087
G1 X113.972 Y113.424 E46.26277
G1 X113.867 Y113.6 E46.27246
G1 X113.407 Y114.062 E46.30328
G1 X113.228 Y114.17 E46.31316
G1 X112.713 Y114.321 E46.33854
G1 X98.274 Y114.321 E47.02117
G1 X97.77 Y114.168 E47.04607
G1 X97.593 Y114.062 E47.05583
G1 X97.132 Y113.6 E47.08668
G1 X97.025 Y113.421 E47.09654
M205 X5 Y5
G0 F7500 X96.969 Y113.229
G1 F2700 E41.09654
G0 F7500 X96.56 Y113.351
G0 X96.621 Y113.6
G0 X96.781 Y113.868
G0 X97.324 Y114.413
G0 X97.592 Y114.572
G0 X98.301 Y114.76
G0 X112.87 Y114.735
G0 X113.408 Y114.574
G0 X113.677 Y114.412
G0 X114.22 Y113.867
G0 X114.377 Y113.601
G0 X114.528 Y113.03
G0 X114.63 Y105.531
G0 X127.764 Y105.035
G0 X128.235 Y104.815
G1 F2700 E47.09654
G0 F7500 X128.301 Y104.95
M205 X8 Y8
;TYPE:WALL-INNER
G1 F1500 X128.609 Y104.793 E47.1147
G1 X128.971 Y104.656 E47.13503
G1 X129.229 Y104.585 E47.14909
G1 X129.608 Y104.519 E47.1693
G1 X129.935 Y104.496 E47.18652
G1 X137.052 Y104.496 E47.56038
G1 X137.317 Y104.511 E47.57432
G1 X137.699 Y104.569 E47.59462
G1 X138.04 Y104.66 E47.61316
G1 X138.389 Y104.793 E47.63277
G1 X138.756 Y104.985 E47.65453
G1 X138.997 Y105.144 E47.6697
G1 X139.301 Y105.393 E47.69034
G1 X139.591 Y105.695 E47.71233
G1 X139.876 Y106.082 E47.73758
G1 X140.06 Y106.417 E47.75766
G1 X140.186 Y106.71 E47.77441
G1 X140.297 Y107.063 E47.79385
G1 X140.382 Y107.553 E47.81998
G1 X140.398 Y107.83 E47.83455
G1 X140.399 Y110.537 E47.97675
G1 X140.382 Y110.836 E47.99248
G1 X140.317 Y111.249 E48.01444
G1 X140.185 Y111.687 E48.03847
G1 X140.027 Y112.043 E48.05893
G1 X139.816 Y112.401 E48.08076
G1 X139.594 Y112.693 E48.10003
G1 X139.324 Y112.978 E48.12065
G1 X139.086 Y113.181 E48.13709
G1 X138.766 Y113.402 E48.15752
G1 X138.462 Y113.567 E48.17569
G1 X138.03 Y113.737 E48.20007
G1 X137.698 Y113.824 E48.2181
G1 X137.391 Y113.874 E48.23444
G1 X137.061 Y113.896 E48.25181
G1 X129.952 Y113.896 E48.62525
G1 X129.611 Y113.874 E48.6432
G1 X129.301 Y113.824 E48.6597
G1 X128.96 Y113.733 E48.67824
G1 X128.61 Y113.6 E48.6979
G1 X128.3 Y113.44 E48.71623
G1 X128.002 Y113.248 E48.73485
G1 X127.637 Y112.941 E48.75991
G1 X127.354 Y112.632 E48.78192
G1 X127.124 Y112.311 E48.80266
G1 X126.981 Y112.06 E48.81783
G1 X126.814 Y111.683 E48.83949
G1 X126.704 Y111.331 E48.85887
G1 X126.627 Y110.916 E48.88104
G1 X126.601 Y110.55 E48.90031
G1 X126.601 Y107.841 E49.04262
G1 X126.618 Y107.554 E49.05772
G1 X126.695 Y107.105 E49.08165
G1 X126.815 Y106.705 E49.10359
G1 X126.935 Y106.423 E49.11969
G1 X127.138 Y106.06 E49.14154
G1 X127.406 Y105.699 E49.16515
G1 X127.676 Y105.414 E49.18578
G1 X127.914 Y105.211 E49.20221
G1 X128.301 Y104.95 E49.22673
M205 X5 Y5
G1 F2700 E43.22673
G0 F7500 X128.199 Y104.753
G0 X129.286 Y104.406
G0 X129.951 Y104.332
G0 X137.431 Y104.359
G0 X138.449 Y104.641
